src/scss/images/gift.svg

<svg fill="none" height="90" viewBox="0 0 90 90" width="90" xmlns="http://www.w3.org/2000/svg" xmlns:xlink="http://www.w3.org/1999/xlink"><linearGradient id="a" gradientUnits="userSpaceOnUse" x1="45" x2="45" y1="0" y2="90"><stop offset="0" stop-color="#826ab4"/><stop offset="1" stop-color="#614897"/></linearGradient><circle cx="45" cy="45" fill="url(#a)" r="42" stroke="#fff" stroke-width="6" transform="matrix(-1 0 0 1 90 0)"/><path d="m64.937 31.406h-5.877c.8409-1.2232 1.3085-2.6644 1.3458-4.1484.0335-1.1304-.1644-2.2558-.5817-3.307s-1.045-2.006-1.8447-2.8057c-.7998-.7997-1.7545-1.4275-2.8057-1.8448-1.0512-.4172-2.1766-.6151-3.3071-.5816-1.0441.0223-2.0724.2602-3.0202.6988s-1.7947 1.0685-2.4875 1.85c-.511.5829-.9661 1.2125-1.3594 1.8805-.3933-.668-.8484-1.2976-1.3594-1.8805-.6928-.7815-1.5397-1.4114-2.4875-1.85s-1.976-.6765-3.0202-.6988c-1.1305-.0335-2.2559.1644-3.3071.5816-1.0511.4173-2.0059 1.0451-2.8056 1.8448-.7998.7997-1.4275 1.7545-1.8448 2.8057-.4172 1.0512-.6152 2.1766-.5816 3.307.0373 1.484.5048 2.9252 1.3457 4.1484h-5.877c-1.2018 0-2.3543.4774-3.2041 1.3272-.8497.8497-1.3271 2.0023-1.3271 3.204v7.25c-.0003 1.0446.3605 2.0572 1.021 2.8664.6606.8092 1.5805 1.3654 2.604 1.5743v13.6843c0 1.2018.4774 2.3543 1.3271 3.2041.8498.8498 2.0023 1.3272 3.2041 1.3272h32.625c1.2018 0 2.3543-.4774 3.2041-1.3272s1.3272-2.0023 1.3272-3.2041v-13.6843c1.0234-.2089 1.9433-.7651 2.6039-1.5743s1.0213-1.8218 1.0211-2.8664v-7.25c0-1.2017-.4774-2.3543-1.3272-3.204-.8498-.8498-2.0023-1.3272-3.2041-1.3272zm-.9062 10.875h-16.3125v-5.4375h16.3125zm-13.5938-17.4068c.2006-.2226.445-.4013.7179-.5249s.5685-.1894.868-.1933h.0793c.3835-.0011.7632.0749 1.1166.2236.3534.1486.6733.3668.9407.6416s.4768.6005.6157.9579c.139.3573.2046.739.1931 1.1222-.0039.2996-.0698.5951-.1933.8681-.1236.2729-.3024.5173-.5249.7178-1.5633 1.3866-4.1348 2.098-6.26 2.4379.3399-2.1161 1.0513-4.6876 2.4469-6.2509zm-14.568.1201c.5378-.5321 1.2622-.8329 2.0187-.8383h.0884c.2996.0039.5951.0697.868.1933.273.1236.5174.3023.7179.5249 1.3866 1.5633 2.098 4.1325 2.4356 6.2554-2.1071-.3421-4.7012-1.0535-6.2486-2.4424-.2226-.2005-.4013-.4449-.5249-.7178-.1236-.273-.1894-.5685-.1933-.8681-.0101-.3896.0591-.7773.2031-1.1394.1441-.3622.3602-.6914.6351-.9676zm-9.9007 11.8492h16.3125v5.4375h-16.3125zm3.625 10.875h12.6875v12.6875h-12.6875zm18.125 12.6875v-12.6875h12.6875v12.6875z" fill="#fff"/></svg>

<svg width="90" height="90" viewBox="0 0 90 90" fill="none" xmlns="http://www.w3.org/2000/svg">
<circle cx="45" cy="45" r="42" transform="matrix(-1 0 0 1 90 0)" fill="url(#paint0_linear_301_2419)" stroke="white" stroke-width="6"/>
<path d="M64.937 31.406H59.06C59.9009 30.1828 60.3685 28.7416 60.4058 27.2576C60.4393 26.1272 60.2414 25.0018 59.8241 23.9506C59.4068 22.8994 58.7791 21.9446 57.9794 21.1449C57.1796 20.3452 56.2249 19.7174 55.1737 19.3001C54.1225 18.8829 52.9971 18.685 51.8666 18.7185C50.8225 18.7408 49.7942 18.9787 48.8464 19.4173C47.8986 19.8559 47.0517 20.4858 46.3589 21.2673C45.8479 21.8502 45.3928 22.4798 44.9995 23.1478C44.6062 22.4798 44.1511 21.8502 43.6401 21.2673C42.9473 20.4858 42.1004 19.8559 41.1526 19.4173C40.2048 18.9787 39.1766 18.7408 38.1324 18.7185C37.0019 18.685 35.8765 18.8829 34.8253 19.3001C33.7742 19.7174 32.8194 20.3452 32.0197 21.1449C31.2199 21.9446 30.5922 22.8994 30.1749 23.9506C29.7577 25.0018 29.5597 26.1272 29.5933 27.2576C29.6306 28.7416 30.0981 30.1828 30.939 31.406H25.062C23.8602 31.406 22.7077 31.8834 21.8579 32.7332C21.0082 33.5829 20.5308 34.7355 20.5308 35.9372V43.1872C20.5305 44.2318 20.8913 45.2444 21.5518 46.0536C22.2124 46.8628 23.1323 47.419 24.1558 47.6279V61.3122C24.1558 62.514 24.6332 63.6665 25.4829 64.5163C26.3327 65.3661 27.4852 65.8435 28.687 65.8435H61.312C62.5138 65.8435 63.6663 65.3661 64.5161 64.5163C65.3659 63.6665 65.8433 62.514 65.8433 61.3122V47.6279C66.8667 47.419 67.7866 46.8628 68.4472 46.0536C69.1078 45.2444 69.4685 44.2318 69.4683 43.1872V35.9372C69.4683 34.7355 68.9909 33.5829 68.1411 32.7332C67.2913 31.8834 66.1388 31.406 64.937 31.406ZM64.0308 42.281H47.7183V36.8435H64.0308V42.281ZM50.437 24.8742C50.6376 24.6516 50.882 24.4729 51.1549 24.3493C51.4278 24.2257 51.7234 24.1599 52.0229 24.156H52.1022C52.4857 24.1549 52.8654 24.2309 53.2188 24.3796C53.5722 24.5282 53.8921 24.7464 54.1595 25.0212C54.4269 25.296 54.6363 25.6217 54.7752 25.9791C54.9142 26.3364 54.9798 26.7181 54.9683 27.1013C54.9644 27.4009 54.8985 27.6964 54.775 27.9694C54.6514 28.2423 54.4726 28.4867 54.2501 28.6872C52.6868 30.0738 50.1153 30.7852 47.9901 31.1251C48.33 29.009 49.0414 26.4375 50.437 24.8742ZM35.869 24.9943C36.4068 24.4622 37.1312 24.1614 37.8877 24.156H37.9761C38.2757 24.1599 38.5712 24.2257 38.8441 24.3493C39.1171 24.4729 39.3615 24.6516 39.562 24.8742C40.9486 26.4375 41.66 29.0067 41.9976 31.1296C39.8905 30.7875 37.2964 30.0761 35.749 28.6872C35.5264 28.4867 35.3477 28.2423 35.2241 27.9694C35.1005 27.6964 35.0347 27.4009 35.0308 27.1013C35.0207 26.7117 35.0899 26.324 35.2339 25.9619C35.378 25.5997 35.5941 25.2705 35.869 24.9943ZM25.9683 36.8435H42.2808V42.281H25.9683V36.8435ZM29.5933 47.7185H42.2808V60.406H29.5933V47.7185ZM47.7183 60.406V47.7185H60.4058V60.406H47.7183Z" fill="white"/>
<defs>
<linearGradient id="paint0_linear_301_2419" x1="45" y1="0" x2="45" y2="90" gradientUnits="userSpaceOnUse">
<stop stop-color="#826AB4"/>
<stop offset="1" stop-color="#614897"/>
</linearGradient>
</defs>
</svg>
